Adwaita++/actions/symbolic/format-text-direction-rtl-symbolic.svg

<svg height="16" width="16" xmlns="http://www.w3.org/2000/svg">
  <g fill="#474747">
    <path d="m6 0v2h6c.43 0 1 .61 1 1v1h-5c-.92 0-1.74.38-2.25.97-.51.58-.75 1.31-.75 2.03s.27 1.45.78 2.03 1.31.97 2.22.97h7v-7c0-1.63-1.32-3-3-3zm2 6h5v2h-5c-.4 0-.57-.11-.72-.28s-.28-.44-.28-.72.1-.55.25-.72c.15-.16.33-.28.75-.28z"/>
    <path d="m0 12 4-3v6z"/>
    <path d="m2 11v2h13v-2z"/>
  </g>
</svg>

<svg xmlns="http://www.w3.org/2000/svg" width="16" height="16" version="1.1">
 <path style="fill:#474747" d="M 6,0 V 2 H 12 C 12.43,2 13,2.61 13,3 V 4 H 8 C 7.08,4 6.26,4.38 5.75,4.97 5.24,5.55 5,6.28 5,7 5,7.72 5.27,8.45 5.78,9.03 6.29,9.61 7.09,10 8,10 H 15 V 3 C 15,1.37 13.68,0 12,0 Z M 8,6 H 13 V 8 H 8 C 7.6,8 7.43,7.89 7.28,7.72 7.13,7.55 7,7.28 7,7 7,6.72 7.1,6.45 7.25,6.28 7.4,6.12 7.58,6 8,6 Z"/>
 <path style="fill:#474747" d="M 0,12 4,9 V 15 Z"/>
 <path style="fill:#474747" d="M 2,11 V 13 H 15 V 11 Z"/>
</svg>
